X:708
T:Kate's Comin O'Age
C:Joe Buchanan's Scottish Tome - Page 232.1
I:232 1
C:Graeme Mitchell
Z:Carl Allison
R:Reel
M:4/4
K:F
C | "F"F2 AG "C/F"FAcd | "F"f2 fd "C/F"cdcA | "Gm"GFGA "D/Gm"BABc | "Gm"dBcd "C7"ecde |
"F"f2 fd "C/E7"cdcA | "Dm7"GAGF "C/F7"ECCE | "Bb"D2 B,D "C7"GFED | "F"CFFG "F"F2 :|
cd | "F"f2 df "C/F"caga | "F"fgfd "C/F"cAGF | "Gm"GFGA "D/Gm"BABc | "Gm"dBcd "C7"ecde |
"F"f2 df "C/E7"caga | "Dm7"fgfd "C/F7"cAGF | "Bb"D2 B,D "C7"GFED | "F"CFFG "F"F2 cd |
"F"f2 df "C/F"caga | "F"fgfd "F#/Cdim"cAGF | "Gm"GFGA "D/Gm"BABc | "Gm"dBcd "C7"ecde |
"F"f2 fd "C/E7"cdcA | "Dm7"GAGF "C/F7"ECCE | "Bb"F2 B,D "C7"GFED | "F"CFFG "F"F2 |]

